icons/evolvere-blue-folders-flat-vivid-dark-fallback/apps/64/exaile.svg

<?xml version="1.0" encoding="UTF-8" standalone="no"?>
<!-- Created with Inkscape (http://www.inkscape.org/) -->

<svg
   xmlns:dc="http://purl.org/dc/elements/1.1/"
   xmlns:cc="http://creativecommons.org/ns#"
   xmlns:rdf="http://www.w3.org/1999/02/22-rdf-syntax-ns#"
   xmlns:svg="http://www.w3.org/2000/svg"
   xmlns="http://www.w3.org/2000/svg"
   xmlns:sodipodi="http://sodipodi.sourceforge.net/DTD/sodipodi-0.dtd"
   xmlns:inkscape="http://www.inkscape.org/namespaces/inkscape"
   width="64"
   height="64"
   id="svg13094"
   version="1.1"
   inkscape:version="0.91+devel r"
   sodipodi:docname="exaile.svg">
  <sodipodi:namedview
     id="base"
     pagecolor="#ffffff"
     bordercolor="#666666"
     borderopacity="1.0"
     inkscape:pageopacity="0"
     inkscape:pageshadow="2"
     inkscape:zoom="11.313709"
     inkscape:cx="37.434906"
     inkscape:cy="32.441753"
     inkscape:document-units="px"
     inkscape:current-layer="svg13094"
     showgrid="true"
     inkscape:snap-bbox="true"
     inkscape:bbox-paths="true"
     inkscape:bbox-nodes="true"
     inkscape:snap-bbox-edge-midpoints="true"
     inkscape:snap-bbox-midpoints="true"
     inkscape:object-paths="true"
     inkscape:snap-intersection-paths="true"
     inkscape:object-nodes="true"
     inkscape:snap-smooth-nodes="true"
     inkscape:snap-midpoints="true"
     inkscape:snap-object-midpoints="true"
     inkscape:snap-center="true"
     showguides="true"
     inkscape:guide-bbox="true"
     inkscape:window-width="1920"
     inkscape:window-height="1023"
     inkscape:window-x="-10"
     inkscape:window-y="35"
     inkscape:window-maximized="1"
     inkscape:snap-global="false"
     fit-margin-top="0"
     fit-margin-left="0"
     fit-margin-right="0"
     fit-margin-bottom="0"
     showborder="true"
     inkscape:showpageshadow="false"
     inkscape:snap-page="true">
    <inkscape:grid
       type="xygrid"
       id="grid3075"
       empspacing="5"
       visible="true"
       enabled="true"
       snapvisiblegridlinesonly="true"
       originx="1.6362304e-08px"
       originy="18px" />
  </sodipodi:namedview>
  <defs
     id="defs13096" />
  <metadata
     id="metadata13099">
    <rdf:RDF>
      <cc:Work
         rdf:about="">
        <dc:format>image/svg+xml</dc:format>
        <dc:type
           rdf:resource="http://purl.org/dc/dcmitype/StillImage" />
        <dc:title></dc:title>
      </cc:Work>
    </rdf:RDF>
  </metadata>
  <g
     id="use3833"
     transform="translate(75.837199,1.2374368)"
     style="fill:#5da52e;fill-opacity:1">
    <path
       id="path3812"
       d="m -75.837199,2.7625633 0,29.9999997 0,28 2,2 30,0 30,0 2,-2 0,-28 0,-29.9999997 -32,0 -32,0 z"
       style="color:#000000;fill:#5da52e;fill-opacity:1;fill-rule:nonzero;stroke:none;stroke-width:2.28571415;marker:none;visibility:visible;display:inline;overflow:visible;enable-background:accumulate"
       inkscape:connector-curvature="0" />
    <path
       inkscape:connector-curvature="0"
       style="color:#000000;fill:#5da52e;fill-opacity:1;fill-rule:nonzero;stroke:none;stroke-width:2.28571415;marker:none;visibility:visible;display:inline;overflow:visible;enable-background:accumulate"
       d="m -75.837199,2.7625632 0,29.9999998 0,28 2,2 30,0 30,0 2,-2 0,-28 0,-29.9999998 -32,0 -32,0 z"
       id="path4095" />
    <path
       inkscape:connector-curvature="0"
       style="color:#000000;fill:#5da52e;fill-opacity:1;fill-rule:nonzero;stroke:none;stroke-width:2.28571415;marker:none;visibility:visible;display:inline;overflow:visible;enable-background:accumulate"
       d="m -75.837199,2.7625632 0,29.9999998 0,28 2,2 30,0 30,0 2,-2 0,-28 0,-29.9999998 -32,0 -32,0 z"
       id="path5441" />
  </g>
  <path
     inkscape:connector-curvature="0"
     style="color:#000000;fill:#98ea3e;fill-opacity:1;fill-rule:nonzero;stroke:none;stroke-width:2.28571415;marker:none;visibility:visible;display:inline;overflow:visible;enable-background:accumulate"
     d="M 2,0 0,1 0,4 32,4 64,4 64,1 62,0 32,0 2,0 z"
     id="path4090" />
  <path
     d="M 64,6 62,4 64,3 z"
     id="path3028"
     style="fill:#78c535;fill-opacity:1"
     inkscape:connector-curvature="0" />
  <g
     id="g3043"
     inkscape:export-filename="folder.png"
     inkscape:export-xdpi="90"
     inkscape:export-ydpi="90"
     transform="translate(-0.62500009,0.082283)" />
  <g
     id="scalable"
     transform="matrix(1.0385892,0,0,1.0385892,1214.7222,1878.8121)"
     inkscape:label="#g3701"
     style="fill:#ffffff" />
  <path
     transform="matrix(0.60997762,-0.60997762,0.60997762,0.60997762,-4.0396362,33.02536)"
     inkscape:transform-center-x="-5.5950517"
     d="M 40.900531,42.498361 C 39.965213,43.433678 9.3011971,35.21728 8.9588471,33.939612 8.6164972,32.661945 31.064115,10.214327 32.341782,10.556677 c 1.277668,0.34235 9.494066,31.006366 8.558749,31.941684 z"
     inkscape:randomized="0"
     inkscape:rounded="0.04"
     inkscape:flatsided="true"
     sodipodi:arg2="1.8325957"
     sodipodi:arg1="0.78539816"
     sodipodi:r2="9.5155611"
     sodipodi:r1="19.092087"
     sodipodi:cy="28.998217"
     sodipodi:cx="27.400387"
     sodipodi:sides="3"
     id="path4194"
     style="color:#000000;fill:#d3f7d4;fill-opacity:1;fill-rule:nonzero;stroke:none;stroke-width:0.89999998;marker:none;visibility:visible;display:inline;overflow:visible;enable-background:accumulate"
     sodipodi:type="star" />
  <path
     inkscape:connector-curvature="0"
     style="fill:#a4f34f;fill-opacity:1;fill-rule:nonzero"
     d="M 0,3 0,6 2,4 Z"
     id="path4298"
     sodipodi:nodetypes="cccc" />
</svg>

<svg xmlns="http://www.w3.org/2000/svg" viewBox="0 0 64 64" xmlns:xlink="http://www.w3.org/1999/xlink"><defs><path id="0" d="m-75.837 2.763v30 28l2 2h30 30l2-2v-28-30h-32-32" color="#000"/></defs><g transform="translate(75.837 1.237)" fill="#5da52e"><use xlink:href="#0"/><use xlink:href="#0"/><use xlink:href="#0"/></g><path d="m2 0l-2 1v3h32 32v-3l-2-1h-30-30" fill="#98ea3e" color="#000"/><path d="m64 6l-2-2 2-1z" fill="#78c535"/><path transform="matrix(.60998-.60998.60998.60998-4.04 33.03)" d="m40.901 42.498c-.935.935-31.599-7.281-31.942-8.559-.342-1.278 22.11-23.725 23.383-23.383 1.278.342 9.494 31.01 8.559 31.942" fill="#d3f7d4" color="#000"/><path d="m0 3v3l2-2" fill="#a4f34f"/></svg>
